Systematic/src/svg/Pioneer - Laseractive-content.svg

<svg xmlns="http://www.w3.org/2000/svg" xml:space="preserve" width="330.667" height="330.666"><defs><clipPath id="a" clipPathUnits="userSpaceOnUse"><path d="M0 256h256V0H0Z"/></clipPath><clipPath id="b" clipPathUnits="userSpaceOnUse"><path d="M4 252.409h248v-248H4Z"/></clipPath></defs><g clip-path="url(#a)" transform="matrix(1.33333 0 0 -1.33333 -5.333 336.545)"><g clip-path="url(#b)" style="opacity:.5"><path d="M0 0c0-68.483-55.517-124-124-124S-248-68.483-248 0s55.517 124 124 124S0 68.483 0 0" style="fill:#fff;fill-opacity:1;fill-rule:nonzero;stroke:none" transform="translate(252 128.41)"/></g><path d="M0 0c-8.836 0-16 7.163-16 16s7.164 16 16 16 16-7.164 16-16S8.837 0 0 0m0 132c-64.071 0-116-51.934-116-116 0-64.065 51.929-116 116-116 64.051 0 116 51.935 116 116 0 64.066-51.949 116-116 116" style="fill:#ccc;fill-opacity:1;fill-rule:nonzero;stroke:none" transform="translate(128 112)"/><path d="M0 0c-8.836 0-16 7.163-16 16s7.164 16 16 16 16-7.164 16-16S8.837 0 0 0m0 127c-29.651 0-57.526-11.546-78.491-32.511C-99.455 73.525-111 45.65-111 16s11.545-57.524 32.509-78.489C-57.526-83.454-29.651-95 0-95c61.206 0 111 49.794 111 111S61.206 127 0 127" style="fill:#d9d9d9;fill-opacity:1;fill-rule:nonzero;stroke:none" transform="translate(128 112)"/><path d="M0 0c-8.836 0-16 7.163-16 16s7.164 16 16 16 16-7.164 16-16S8.837 0 0 0m.002 52C-19.85 52-36 35.851-36 16S-19.85-20 .002-20C19.852-20 36-3.851 36 16S19.852 52 .002 52" style="fill:#ccc;fill-opacity:1;fill-rule:nonzero;stroke:none" transform="translate(128 112)"/><path d="M0 0c-8.836 0-16 7.163-16 16s7.164 16 16 16 16-7.164 16-16S8.837 0 0 0m.002 48C-17.647 48-32 33.644-32 16-32-1.645-17.647-16 .002-16 17.646-16 32-1.645 32 16 32 33.644 17.646 48 .002 48" style="fill:#e6e6e6;fill-opacity:1;fill-rule:nonzero;stroke:none" transform="translate(128 112)"/></g></svg>

<?xml version="1.0" encoding="UTF-8" standalone="no"?>
<svg
   xmlns:dc="http://purl.org/dc/elements/1.1/"
   xmlns:cc="http://creativecommons.org/ns#"
   xmlns:rdf="http://www.w3.org/1999/02/22-rdf-syntax-ns#"
   xmlns:svg="http://www.w3.org/2000/svg"
   xmlns="http://www.w3.org/2000/svg"
   viewBox="0 0 330.66665 330.66638"
   height="330.66638"
   width="330.66666"
   xml:space="preserve"
   id="svg2"
   version="1.1"><metadata
     id="metadata8"><rdf:RDF><cc:Work
         rdf:about=""><dc:format>image/svg+xml</dc:format><dc:type
           rdf:resource="http://purl.org/dc/dcmitype/StillImage" /></cc:Work></rdf:RDF></metadata><defs
     id="defs6"><clipPath
       id="clipPath18"
       clipPathUnits="userSpaceOnUse"><path
         id="path16"
         d="M 0,256 H 256 V 0 H 0 Z" /></clipPath><clipPath
       id="clipPath26"
       clipPathUnits="userSpaceOnUse"><path
         id="path24"
         d="M 4,252.409 H 252 V 4.40915 H 4 Z" /></clipPath></defs><g
     transform="matrix(1.3333333,0,0,-1.3333333,-5.3333332,336.54532)"
     id="g10"><g
       id="g12"><g
         clip-path="url(#clipPath18)"
         id="g14"><g
           id="g20"><g
             id="g22" /><g
             id="g34"><g
               style="opacity:0.5"
               id="g32"
               clip-path="url(#clipPath26)"><g
                 id="g30"
                 transform="translate(252,128.4092)"><path
                   id="path28"
                   style="fill:#ffffff;fill-opacity:1;fill-rule:nonzero;stroke:none"
                   d="m 0,0 c 0,-68.483 -55.517,-124 -124,-124 -68.483,0 -124,55.517 -124,124 0,68.483 55.517,124 124,124 C -55.517,124 0,68.483 0,0" /></g></g></g></g><g
           transform="translate(128,112)"
           id="g36"><path
             id="path38"
             style="fill:#cccccc;fill-opacity:1;fill-rule:nonzero;stroke:none"
             d="m 0,0 c -8.836,0 -16,7.163 -16,16 0,8.836 7.164,16 16,16 C 8.837,32 16,24.836 16,16 16,7.163 8.837,0 0,0 m 0,132 c -64.071,0 -116,-51.934 -116,-116 0,-64.065 51.929,-116 116,-116 64.051,0 116,51.935 116,116 0,64.066 -51.949,116 -116,116" /></g><g
           transform="translate(128,112)"
           id="g40"><path
             id="path42"
             style="fill:#d9d9d9;fill-opacity:1;fill-rule:nonzero;stroke:none"
             d="m 0,0 c -8.836,0 -16,7.163 -16,16 0,8.836 7.164,16 16,16 C 8.837,32 16,24.836 16,16 16,7.163 8.837,0 0,0 M 0,127 C -29.651,127 -57.526,115.454 -78.491,94.489 -99.455,73.525 -111,45.65 -111,16 c 0,-29.65 11.545,-57.524 32.509,-78.489 C -57.526,-83.454 -29.651,-95 0,-95 61.206,-95 111,-45.206 111,16 111,77.206 61.206,127 0,127" /></g><g
           transform="translate(128,112)"
           id="g44"><path
             id="path46"
             style="fill:#cccccc;fill-opacity:1;fill-rule:nonzero;stroke:none"
             d="m 0,0 c -8.836,0 -16,7.163 -16,16 0,8.836 7.164,16 16,16 C 8.837,32 16,24.836 16,16 16,7.163 8.837,0 0,0 M 0.002,52 C -19.85,52 -36,35.851 -36,16 -36,-3.851 -19.85,-20 0.002,-20 19.852,-20 36,-3.851 36,16 36,35.851 19.852,52 0.002,52" /></g><g
           transform="translate(128,112)"
           id="g48"><path
             id="path50"
             style="fill:#e6e6e6;fill-opacity:1;fill-rule:nonzero;stroke:none"
             d="m 0,0 c -8.836,0 -16,7.163 -16,16 0,8.836 7.164,16 16,16 C 8.837,32 16,24.836 16,16 16,7.163 8.837,0 0,0 M 0.002,48 C -17.647,48 -32,33.644 -32,16 -32,-1.645 -17.647,-16 0.002,-16 17.646,-16 32,-1.645 32,16 32,33.644 17.646,48 0.002,48" /></g></g></g></g></svg>
